Newaita-dark/.LP/22/nm-vpn-standalone-lock.svg

<svg xmlns="http://www.w3.org/2000/svg" xmlns:xlink="http://www.w3.org/1999/xlink" width="22px" height="22px" viewBox="0 0 22 22" version="1.1">
<g id="surface1">
<path style=" stroke:none;fill-rule:nonzero;fill:rgb(25.882354%,25.882354%,25.882354%);fill-opacity:1;" d="M 8.640625 1.082031 C 6.878906 1.082031 5.457031 2.296875 5.457031 3.808594 L 5.457031 11.085938 L 3.636719 11.085938 C 3.132812 11.085938 2.730469 11.492188 2.730469 11.996094 L 2.730469 20.183594 C 2.730469 20.6875 3.132812 21.09375 3.636719 21.09375 L 18.191406 21.09375 C 18.695312 21.09375 19.101562 20.6875 19.101562 20.183594 L 19.101562 11.996094 C 19.101562 11.492188 18.695312 11.085938 18.191406 11.085938 L 16.371094 11.085938 L 16.371094 3.808594 C 16.371094 2.296875 14.953125 1.082031 13.1875 1.082031 Z M 9.097656 3.808594 L 12.734375 3.808594 C 13.238281 3.808594 13.644531 4.214844 13.644531 4.71875 L 13.644531 11.085938 L 8.1875 11.085938 L 8.1875 4.71875 C 8.1875 4.214844 8.59375 3.808594 9.097656 3.808594 Z M 9.097656 3.808594 "/>
</g>
</svg>

<svg xmlns="http://www.w3.org/2000/svg" width="22" height="22"><path d="M8.64 1.082c-1.761 0-3.183 1.215-3.183 2.727v7.277h-1.82a.905.905 0 0 0-.907.91v8.188c0 .503.403.91.907.91H18.19c.504 0 .91-.407.91-.91v-8.188a.909.909 0 0 0-.91-.91h-1.82V3.809c0-1.512-1.418-2.727-3.183-2.727zm.458 2.727h3.636c.504 0 .91.406.91.91v6.367H8.188V4.719c0-.504.407-.91.91-.91zm0 0" fill="#424242"/></svg>
